X:1
T:Miss Devon's Reel
T:Miss Devon's Reel
T:Abraham Mackintosh
C:Abraham Mackintosh
L:1/8
M:4/4
K:A
V:1 treble 
V:1
 E |"A" [CEA]>B A>A"A7" [Ec]<ee>c |"D" [Fd]<ff>a"A" e<c"E"[GB]>c |"A" A>B A>B c<e"D" [Df]>a | %4
"E" [Bg]f/e/"B7" B^d"E" eEEE |"A" [CEA]>B A>A"A7" [Ec]<ee>c |"D" [Fd]<ff>a"A" e<c"E"[GB]>c | %7
"A" A>B A>B c<e"D" [Df]>a |"E" [Bg]f/e/"B7" B^d"E" eEE || e | %10
"A" [ce]>f"A7" [Ae]>=g"D" [Af]>d"E" [GB]>d |"A" [Ee]>c"F#m" [FA]>c"E" B>G E>d | %12
"A" [ce]>f"A7" [Ae]>=g"D" [Af]>d"E" [GB]>d |"E" [Fd]>B [EG]>B"A" [CA]2 Ac | %14
"A" [ce]>f"A7" [Ae]>=g"D" [Af]>d"E" [GB]>d |"A" [Ee]>c"F#m" [FA]>c"E" B>G E>G | %16
"D" F>A"A" E>A"Bm7" D>A"A" C>e |"Bm" f>d"E7" Bg"A" aAA |] %18

